packages/core/src/svgs/dlc.svg

<svg width="24" height="24" viewBox="0 0 24 24" fill="none" xmlns="http://www.w3.org/2000/svg">
<g clip-path="url(#clip0_31_9246)">
<path d="M0 0H24V24H0V0Z" fill="url(#paint0_linear_31_9246)"/>
<path fill-rule="evenodd" clip-rule="evenodd" d="M6.85718 5.97415V9.87415L8.11289 11.417L6.85718 13.337V18.0299C6.85718 18.2527 7.03718 18.4327 7.25575 18.4327H12.9857C13.2943 18.4284 18.8572 18.107 18.8572 12.1713C18.8572 7.43129 15.1886 5.57129 12.9815 5.57129H7.26004C7.15319 5.57129 7.05072 5.61373 6.97517 5.68928C6.89962 5.76483 6.85718 5.8673 6.85718 5.97415ZM7.71432 6.70272V9.29558L8.65289 10.6027L9.46718 9.15415C9.51432 9.05986 9.60861 8.99986 9.71146 8.99986H15.15C15.2486 8.99986 15.3386 9.05557 15.3857 9.137L16.7272 11.2927C16.7829 11.387 16.77 11.507 16.7057 11.5927L12.8572 16.5427C12.8206 16.5936 12.7732 16.6358 12.7183 16.6662C12.6635 16.6965 12.6026 16.7144 12.54 16.7184C12.4763 16.7165 12.4138 16.7 12.3574 16.6703C12.301 16.6406 12.252 16.5984 12.2143 16.547L8.65718 12.1584L7.71432 13.6284V17.3013C7.71432 17.4513 7.83432 17.5713 7.98432 17.5713H12.9686C14.6443 17.5113 18 16.3156 18 12.0213C18 7.73129 14.6443 6.50557 12.9686 6.42843H7.98432C7.91271 6.42843 7.84404 6.45688 7.7934 6.50751C7.74277 6.55815 7.71432 6.62682 7.71432 6.69843V6.70272ZM10.0286 9.857H11.9057L11.0743 11.1427H9.29575L10.0243 9.857H10.0286ZM9.54861 11.5713L11.6915 14.4856L11.04 11.5713H9.54861ZM14.7772 9.857H12.9L13.7315 11.1427H15.5057L14.7772 9.857ZM15.2572 11.5713L13.1143 14.5541L13.7615 11.5713H15.2615H15.2572ZM11.6057 11.1427H13.1829L12.4029 9.857L11.6057 11.1427ZM13.2943 11.5713H11.4943L12.4029 15.2141L13.2943 11.5713Z" fill="white"/>
</g>
<defs>
<linearGradient id="paint0_linear_31_9246" x1="0" y1="12" x2="24" y2="12" gradientUnits="userSpaceOnUse">
<stop stop-color="#16E0B0"/>
<stop offset="1" stop-color="#14C5D7"/>
</linearGradient>
<clipPath id="clip0_31_9246">
<rect width="24" height="24" fill="white"/>
</clipPath>
</defs>
</svg>

<svg xmlns="http://www.w3.org/2000/svg" width="24" height="24" fill="none" viewBox="0 0 24 24"><g clip-path="url(#a)"><path fill="url(#b)" d="M0 0h24v24H0z"/><path fill="#fff" fill-rule="evenodd" d="M6.857 5.974v3.9l1.256 1.543-1.256 1.92v4.693c0 .223.18.403.399.403h5.73c.308-.005 5.871-.326 5.871-6.262 0-4.74-3.668-6.6-5.875-6.6H7.26a.403.403 0 0 0-.403.403m.857.729v2.593l.939 1.307.814-1.449A.28.28 0 0 1 9.711 9h5.439c.099 0 .189.056.236.137l1.341 2.156a.27.27 0 0 1-.021.3l-3.849 4.95a.42.42 0 0 1-.317.175.42.42 0 0 1-.326-.171l-3.557-4.389-.943 1.47v3.673c0 .15.12.27.27.27h4.985c1.675-.06 5.031-1.255 5.031-5.55 0-4.29-3.356-5.515-5.031-5.593H7.984a.27.27 0 0 0-.27.27zm2.315 3.154h1.877l-.832 1.286H9.296l.728-1.286zm-.48 1.714 2.143 2.915-.652-2.915zm5.228-1.714H12.9l.832 1.286h1.774zm.48 1.714-2.143 2.983.647-2.983h1.5zm-3.651-.428h1.577l-.78-1.286zm1.688.428h-1.8l.909 3.643z" clip-rule="evenodd"/></g><defs><linearGradient id="b" x1="0" x2="24" y1="12" y2="12" gradientUnits="userSpaceOnUse"><stop stop-color="#16E0B0"/><stop offset="1" stop-color="#14C5D7"/></linearGradient><clipPath id="a"><path fill="#fff" d="M0 0h24v24H0z"/></clipPath></defs></svg>
